app/assets/images/icons/shop.svg

<svg width="31" height="32" viewBox="0 0 31 32" fill="none" xmlns="http://www.w3.org/2000/svg">
<path d="M11.625 28.5C12.056 28.5 12.4693 28.6712 12.774 28.976C13.0788 29.2807 13.25 29.694 13.25 30.125C13.25 30.556 13.0788 30.9693 12.774 31.2741C12.4693 31.5788 12.056 31.75 11.625 31.75C11.194 31.75 10.7807 31.5788 10.476 31.2741C10.1712 30.9693 10 30.556 10 30.125C10 29.694 10.1712 29.2807 10.476 28.976C10.7807 28.6712 11.194 28.5 11.625 28.5ZM23 28.5C23.431 28.5 23.8443 28.6712 24.149 28.976C24.4538 29.2807 24.625 29.694 24.625 30.125C24.625 30.556 24.4538 30.9693 24.149 31.2741C23.8443 31.5788 23.431 31.75 23 31.75C22.569 31.75 22.1557 31.5788 21.851 31.2741C21.5462 30.9693 21.375 30.556 21.375 30.125C21.375 29.694 21.5462 29.2807 21.851 28.976C22.1557 28.6712 22.569 28.5 23 28.5ZM0.574999 0.712504C0.812396 0.395913 1.15716 0.176824 1.5446 0.0963443C1.93204 0.0158644 2.33553 0.0795238 2.67937 0.275378L2.85 0.389128L5.6255 2.46913C6.09783 2.82353 6.46467 3.29992 6.68662 3.84713L6.78412 4.125H27.6589C28.0994 4.12489 28.5354 4.21435 28.9403 4.38794C29.3452 4.56153 29.7106 4.81563 30.0143 5.1348C30.3179 5.45397 30.5535 5.83154 30.7068 6.24458C30.86 6.65762 30.9277 7.09751 30.9056 7.5375L30.8845 7.778L30.1419 13.7174C29.919 15.5048 29.1085 17.1674 27.8378 18.444C26.5671 19.7206 24.9082 20.5388 23.1219 20.7699L22.7546 20.8073L10.871 21.7985L11.2935 23.625H25.4375C25.8517 23.6255 26.25 23.7841 26.5512 24.0684C26.8524 24.3527 27.0336 24.7413 27.0579 25.1548C27.0822 25.5682 26.9477 25.9754 26.6818 26.293C26.416 26.6106 26.0389 26.8147 25.6276 26.8636L25.4375 26.875H11.2935C10.6039 26.8751 9.93205 26.6559 9.37526 26.2489C8.81847 25.842 8.40556 25.2685 8.19625 24.6114L8.12637 24.3563L3.67387 5.0675L0.899999 2.9875C0.555218 2.72892 0.32728 2.34396 0.266331 1.91731C0.205382 1.49067 0.316413 1.05729 0.574999 0.712504Z" fill="#4A2D24"/>
</svg>

<svg xmlns="http://www.w3.org/2000/svg" width="31" height="32" fill="none"><path fill="#4A2D24" d="M11.625 28.5a1.625 1.625 0 1 1 0 3.25 1.625 1.625 0 0 1 0-3.25M23 28.5a1.625 1.625 0 1 1 0 3.25 1.625 1.625 0 0 1 0-3.25M.575.713A1.625 1.625 0 0 1 2.679.275L2.85.39l2.775 2.08c.473.355.84.83 1.062 1.378l.097.278H27.66a3.25 3.25 0 0 1 3.247 3.412l-.021.241-.743 5.94a8.125 8.125 0 0 1-7.02 7.052l-.367.037-11.884.992.422 1.826h14.145a1.625 1.625 0 0 1 .19 3.239l-.19.011H11.294a3.25 3.25 0 0 1-3.098-2.264l-.07-.255L3.674 5.067.9 2.987A1.625 1.625 0 0 1 .575.713"/></svg>
